Origami/64x64/apps/lskat.svg

<svg width="64" height="64" version="1" xmlns="http://www.w3.org/2000/svg">
 <path d="m12 54.398v2c0 1.44 1.1906 2.602 2.668 2.602h34.664c1.478 0 2.668-1.162 2.668-2.602v-2c0 1.44-1.19 2.602-2.668 2.602h-34.664c-1.4774 0-2.668-1.162-2.668-2.602z" style="opacity:.2"/>
 <rect transform="matrix(0,-1,-1,0,0,0)" x="-58" y="-52" width="52" height="40" rx="2.6" ry="2.666" style="fill:#cccccc"/>
 <path d="m14.667969 6c-1.4774 0-2.667969 1.1611625-2.667969 2.6015625v1c0-1.4404 1.190569-2.6015625 2.667969-2.6015625h34.664062c1.478 0 2.667969 1.1611625 2.667969 2.6015625v-1c0-1.4404-1.189969-2.6015625-2.667969-2.6015625h-34.664062z" style="fill:#ffffff;opacity:.2"/>
 <rect transform="matrix(.62469749 .78086686 -.62469749 .78086686 0 0)" x="39.7" y="-11.52" width="12.806" height="12.806" style="fill:#e74c3c"/>
 <rect transform="matrix(.62469749 .78086686 -.62469749 .78086686 0 0)" x="25.94" y="-2.88" width="6.404" height="6.404" style="fill:#e74c3c"/>
 <rect transform="matrix(-.62469749 -.78086686 .62469749 -.78086686 0 0)" x="-66.28" y="7.36" width="6.404" height="6.404" style="fill:#e74c3c"/>
 <path d="m19.5 17h-3l-0.5 1h-2l2.9632-8h2.0368l3.0857 8h-2.0857zm-2.403-1.9999h1.8913l-0.9883-3.0001-0.9028 2.9999z" style="fill:#e74c3c"/>
 <path d="m47.5 47h-3l-0.5-1h-2l2.9632 8h2.0368l3.0857-8h-2.0857zm-2.403 1.9999h1.8913l-0.9883 3.0001-0.9028-2.9999z" style="fill:#e74c3c"/>
</svg>

<svg xmlns="http://www.w3.org/2000/svg" width="64" height="64" version="1">
 <path style="opacity:0.2" d="m 12,54.398 0,2 C 12,57.838 13.1906,59 14.668,59 l 34.664,0 C 50.81,59 52,57.838 52,56.398 l 0,-2 C 52,55.838 50.81,57 49.332,57 L 14.668,57 C 13.1906,57 12,55.838 12,54.398 Z"/>
 <rect style="fill:#cccccc" width="52" height="40" x="-58" y="-52" rx="2.6" ry="2.666" transform="matrix(0,-1,-1,0,0,0)"/>
 <path style="opacity:0.2;fill:#ffffff" d="M 14.667969 6 C 13.190569 6 12 7.1611625 12 8.6015625 L 12 9.6015625 C 12 8.1611625 13.190569 7 14.667969 7 L 49.332031 7 C 50.810031 7 52 8.1611625 52 9.6015625 L 52 8.6015625 C 52 7.1611625 50.810031 6 49.332031 6 L 14.667969 6 z"/>
 <rect style="fill:#e74c3c" width="12.806" height="12.806" x="39.7" y="-11.52" transform="matrix(0.62469749,0.78086686,-0.62469749,0.78086686,0,0)"/>
 <rect style="fill:#e74c3c" width="6.404" height="6.404" x="25.94" y="-2.88" transform="matrix(0.62469749,0.78086686,-0.62469749,0.78086686,0,0)"/>
 <rect style="fill:#e74c3c" width="6.404" height="6.404" x="-66.28" y="7.36" transform="matrix(-0.62469749,-0.78086686,0.62469749,-0.78086686,0,0)"/>
 <path style="fill:#e74c3c" d="m 19.5,17 -3,0 -0.5,1 -2,0 2.9632,-8 L 19,10 22.0857,18 20,18 Z m -2.403,-1.9999 1.8913,0 L 18,12 17.0972,14.9999 Z"/>
 <path style="fill:#e74c3c" d="m 47.5,47 -3,0 -0.5,-1 -2,0 2.9632,8 L 47,54 50.0857,46 48,46 Z m -2.403,1.9999 1.8913,0 L 46,52 45.0972,49.0001 Z"/>
</svg>
